X: 203
T: No_60_Calusa_Hunting_Dance_Song_(d).krn
N: Derived from No_60_Calusa_Hunting_Dance_Song_(d).krn
%%abc-version 2.0
%%abcx-abcm2ps-target-version 5.9.1 (29 Sep 2008)
%%abc-creator hum2abc beta
%%abcx-conversion-date 2019/03/15 08:38:45
%%humdrum-veritas 1580090640
%%humdrum-veritas-data 789864282
%%linebreak <none>
%%barnumbers 0
L: 1/8
M: 3/4
K: Eb clef=bass
[K:clef=bass][M:3/4]z4C2 | 
C4(3CB,G, | 
G,3B, (3G,F,E, | 
F,3F, F,3/C,/ | 
E,4(3F,E,C, | 
F,3F,C,2 ||  
[M:2/4]C,2(3F,C,C, ||  
[M:3/4]C,2z2F,C, ||  
[M:2/4]C,4 | 
G,G,G,2 | 
G,4 ||  
[M:3/4]G,F, E,C,C,2 ||  
[M:2/4]C,3G, | 
(3G,F,E,F,2 | 
F,F, C,E, | 
C,2(3E,E,C, ||  
[M:3/4]F,3F,C,2 ||  
[M:2/4]C,2(3F,F,C, ||  
[M:3/4]C,2z2F,C, | 
C,4z2 |]  



